!!!!SEGMENT: pl-wn--sd-xvi-qu-273--088_gomolka-mikolaj--boze-moja-nadziejo-i-moja-pomocy.krn
!!!cenid: 15xx:293
!!!COM: Gomółka, Mikołaj
!!!COM-rismid: pe30013343
!!!CDT: ~1535->1591/04/30
!!!CNT: Polish
!!!GTL: Melodiae na psalterz polski
!!!OTL: LXXXVIII. Boże, moja nadziejo i moja pomocy!
!!!PDT: 1580
!!!AGN: Sacred
!!!SMS-siglum: PL-Wn
!!!SMS-shelfmark: SD XVI.Qu.273
!!!SMS-shelfwork: 088 G
!!!NIFC-rismid:
!!!ONB-nifc: Melodiae na psalterz polski
**kern	**text	**kern	**text	**kern	**text	**kern	**text
*part4	*part4	*part3	*part3	*part2	*part2	*part1	*part1
*staff4	*staff4	*staff3	*staff3	*staff2	*staff2	*staff1	*staff1
*clefF3	*	*clefC3	*	*clefC2	*	*clefG2	*
*k[]	*	*k[]	*	*k[]	*	*k[]	*
*A:	*	*A:	*	*A:	*	*A:	*
*M4/2	*	*M4/2	*	*M4/2	*	*M4/2	*
*met(C|)	*	*met(C|)	*	*met(C|)	*	*met(C|)	*
=-	=-	=-	=-	=-	=-	=-	=-
1A	Bo-	1c#X	Bo-	1e	Bo-	1a	Bo-
!	!'ż'	!	!'ż'	!	!'ż'	!	!'ż'
2D	-ӡe/	2d	-ӡe/	2f#X	-ӡe/	2a	-ӡe/
1d	mo-	1d	mo-	1a	mo-	1ff	mo-
=3-	=3-	=3-	=3-	=3-	=3-	=3-	=3-
.	.	.	.	.	.	.	.
2c#X	-iá	2e	-iá	2a	-iá	2ee	-iá
2d	ná-	2f	ná-	2a	ná-	2dd	ná-
2B	-dӡie-	2d	-dӡie-	2g	-dӡie-	2dd	-dӡie-
=4-	=4-	=4-	=4-	=4-	=4-	=4-	=4-
2A	-(io)	2e	-(io)	2a	-(io)	2cc	-(io)
1D	y	1d	y	1a	y	1ff	y
2C#X	mo-	2e	mo-	2a	mo-	2ee	mo-
=5-	=5-	=5-	=5-	=5-	=5-	=5-	=5-
2D	-iá	2f	-iá	2a	-iá	2dd	-iá
2G	po-	4g	po-	2b-X	po-	1dd	po-
.	.	4f	.	.	.	.	.
1A	-(mo-	4e	.	2.a	-(mo-	.	.
.	.	4d	.	.	.	.	.
.	.	2e	-(mo-	.	.	2cc	-(mo-
.	.	.	.	4g	.	.	.
=6-	=6-	=6-	=6-	=6-	=6-	=6-	=6-
2D	-cy!)	2d	-cy!)	4f\	-cy!)	2dd	-cy!)
.	.	.	.	4e/	.	.	.
2d	Do	2f	Do	4d	Do	2a	Do
.	.	.	.	4e\	.	.	.
2B	ćie-	2d	ćie-	4f	ćie-	2dd	ćie-
.	.	.	.	4g	.	.	.
2A	-bie	2e	-bie	2.a	-bie	2cc	-bie
=7-	=7-	=7-	=7-	=7-	=7-	=7-	=7-
1d	wo-	1f	wo-	.	.	1ff	wo-
.	.	.	.	4g	.	.	.
.	.	.	.	4a	wo-	.	.
.	.	.	.	4b	.	.	.
2c	-(łam)	2g	-łam	2cc	-łam	2ee	-(łam)
1A	we	1c	we	1e	we	1a	we
=8-	=8-	=8-	=8-	=8-	=8-	=8-	=8-
.	.	.	.	.	.	.	.
2F/	dnie/	2c/	dnie/	4f\	dnie/	2a	dnie/
.	.	.	.	4e/	.	.	.
2B	y	2d	y	4d	y	2f	y
.	.	.	.	4c	.	.	.
2B	w_no-	2d	w_no-	2d	w_no-	2g	w_no-
=9-	=9-	=9-	=9-	=9-	=9-	=9-	=9-
!!LO:N:vis=00
0A	-cy.	0c#X	-cy.	0e/	-cy.	0a/	-cy.
=-	=-	=-	=-	=-	=-	=-	=-
*-	*-	*-	*-	*-	*-	*-	*-
!!!RDF**kern: l = terminal long
!!!system-decoration: s1,s2,s3,s4
!!!ENC:Anna Matuszewska
!!!END:2020-02-15
!!!URL-scan: https://polona.pl/item/melodiae-ná-psalterz-polski,Nzk3MTM4ODQ/206 Scan on Polona
!!!IIIF: https://polona.pl/iiif/item/Nzk3MTM4ODQ/manifest.json
